**kern	**kern
*part1	*part1
*staff2	*staff1
*I"Piano	*
*clefF4	*clefG2
*k[]	*k[]
=1	=1
4CC 4GG 4C	4E 4G 4c 4e
4CC 4GG 4C	4E 4G 4c 4e
4CC 4GG 4C	4E) 4G 4c 4e
=!|:	=!|:
4CC 4GG 4C	(4E 4G 4c 4e
4CC 4GG 4C	4E 4G 4c 4e
4CC 4GG 4C	4E 4G 4c 4e
=	=
4CC 4GG 4C	4E 4G 4c 4e
4CC 4GG 4C	4E 4G 4c 4e
4CC 4GG 4C	4E) 4G 4c 4e
=	=
4CC 4GG 4C	(4E 4G 4c 4e
4CC 4GG 4C	4E 4G 4c 4e
4CC 4GG 4C	4E 4G 4c 4e
=	=
4DD 4GG 4D	4G 4B 4f 4g
4DD 4GG 4D	4G 4B 4f 4g
4DD 4GG 4D	4G) 4B 4f 4g
=	=
2.GG	(4G 4B 4f 4g
.	4G 4B 4f 4g
.	4G 4B 4f 4g
=	=
2GG	4B 4d 4f 4g
.	4B 4d 4f 4g
4F	4G 4B
=	=
*-	*-
!!!system-decoration: {(s1,s2)}
